X:1
T:Liewer Heindrich (Dear Henry)
M:3/4
L:1/8
K:G
 GA| B2 GG G2| B2 G2 GG| A2 D2 DD| B2 G2 GA| B2 GG G2| B2 G2 GG| A2 D2 DD|\
 G6| z4 G2| B2 G3.99999962500005/5.99999925000009 G3.99999962500005/5.99999925000009 G3.99999962500005/5.99999925000009 GG|\
 B2 GG GG| A2 D2 DD| B2 G2G-A| B2 G3.99999962500005/5.99999925000009 G3.99999962500005/5.99999925000009 G3.99999962500005/5.99999925000009 GG|\
 B2 GG GG| A2 D2 D2| G2 z2||
